X: 21198
T: Katie's
R: reel
M: 4/4
K: Ddorian
|:DEDC A,3D|CB,CD EFG2|Addc AGFG|Addc d3e|
f2ef defd|eaag a3g|f2ef dcAG|1 F2EF D3C:|2 F2EF D3G||
|:Adde fedf|eaag a3g|f2ef dcAG|F2EF E3G|
Adde fedf|eaag a3g|f2ef dcAG|1 F2EF D3G:|2 Addc d4||

